X:1754
T:Hawk's Hornpipe
M:C|
L:1/8
N:"collected by McFadden"
B:O'Neill's 1754
R:Hornpipe
Z:"Transcribed by Bob Safranek, rjs@gsp.org"
K:A
   (ed) | c2 EF G2 EF | GFGA  GAcd   |      egec  AdcA | GFEF G2 (FG) |
          AGAB  cBcA  | dcde g2 (fg) | ((3agf) ge fdec |1 A2 (3AAA AGAB :|2 A2 (3AAA Acef ||
|: gfga gfed | cdef gfed | eaab c'bag | e2 a2 a2 (ef) |
((3gfe) af ((3gfe) dB|cdeg g2 (fg)|((3agf) ge fdec|1 A2 (3AAA Acef:|2A2 (3AAA A2|]


